X:1
T:Shores of Botany Bay
M:2/4
L:1/8
K:F
 C/2C/2| CA AG| Fd D D/2D/2| dd dc| A3| D/2D/2| DA AG| FE DC| G2 G3/2 A/2|\
 G3| C/2C/2| CA AG| F D/2D/2 Dd| dd cA| G3| A/2A/2| AD D A/2A/2| AD D A/2A/2|\
 AG F/2F/2 E| D3||
